!!!COM:	Bach, Johann Sebastian
!!!OMV:	Was bist du doch, o Seele, so betr&uuml;bet
!!!OTL:	Was bist du doch, o Seele, so betr&uuml;bet
**kern	**fb	**kern	**kern	**kern	**kern
*part5	*part5	*part4	*part3	*part2	*part1
*staff5	*	*staff4	*staff3	*staff2	*staff1
*I"Continuo	*	*I"Voice	*I"Voice	*I"Voice	*I"Voice
*I'Cont.	*	*I'V	*I'V	*I'V	*I'V
*clefF4	*	*clefF4	*clefGv2	*clefG2	*clefG2
*Trd0c0	*	*	*	*	*
*k[]	*	*k[]	*k[]	*k[]	*k[]
*M4/4	*	*M4/4	*M4/4	*M4/4	*M4/4
=	=	=	=	=	=
4r	.	4r	4r	4r	4r
4AA	.	4AA	8cL	4a	4ee
.	.	.	8dJ	.	.
4A	.	4A	4e	4a	4.cc
4E	6 #	4E	8.eL	4g#X	.
.	5	.	.	.	8b
.	.	.	16dJk	.	.
=3	=3	=3	=3	=3	=3
4AA;	.	4AA;	4c;	4e;	4a;
4A	.	4A	4c	4a	4ee
4D	6 5	4D	4B	4a	4ff
4E	#	4E	4B	4g#X	8eeL
.	.	.	.	.	8ddJ
=4	=4	=4	=4	=4	=4
4A	.	4A	8AL	4e	4cc
.	.	.	8c	.	.
4F	6	4F	8B	4a	4dd
.	.	.	8AJ	.	.
4E	#	4E	4B	4g#X	4ee
4E;	.	4E;	4B;	4g#;	4ee;
=5:|!	=5:|!	=5:|!	=5:|!	=5:|!	=5:|!
4r	.	4r	4r	4r	4r
4AA	.	4AA	4e	4a	4cc
2BB	6	2BB	4d	4gn	4.dd
.	5	.	4d	[4f	.
.	.	.	.	.	8g
=6	=6	=6	=6	=6	=6
2C;	.	2C;	2c;	4f]	2g;
.	.	.	.	4e;	.
4r	.	4r	4r	4r	4r
4BB	6	4BB	4d	4g	4dd
=7	=7	=7	=7	=7	=7
4C	.	4C	4c	4g	4.ee
4E	6	4E	8cL	4g	.
.	-r5	.	8B-XJ	.	8cc
2F;	.	2F;	2A;	2f;	2cc;
=8	=8	=8	=8	=8	=8
!!linebreak:original
4r	.	4r	4r	4r	4r
4E	6	4E	4c#X	4g	4ee
4D	8	4D	[4d	8fL	4ff
.	.	.	.	8aJ	.
4E	7 #	4E	8dL]	4g#X	4ee
.	6	.	[8cnJ	.	.
=9	=9	=9	=9	=9	=9
4F	6 5	4F	8cL]	8aL	4dd
.	4	.	[8BJ	8dJ	.
4E	6 5	4E	8BL]	4e	4cc
.	4	.	[8AJ	.	.
4D	6 5	4D	8AL]	4f	4.b
.	#4|	.	[8G#XJ	.	.
4C	7 #5\	4C	8G#L]	4e	.
.	6	.	8AJ	.	8a
=10	=10	=10	=10	=10	=10
4BB	#6\	4BB	4B	4d	8g#XL
.	.	.	.	.	8eeJ
4AA	.	4AA	4e	[4a	8ddL
.	.	.	.	.	8ccJ
4E	4	4E	4e	4a]	2b
4EE	#	4EE	8eL	4g#X	.
.	.	.	8dJ	.	.
=11	=11	=11	=11	=11	=11
2AA;	.	2AA;	2c#X;	2e;	2a;
2r	.	2r	2r	2r	2r
==	==	==	==	==	==
*-	*-	*-	*-	*-	*-
!!!system-decoration: s1,s2,s3,s4,s5
